X:1650
T:Fetpolskan
R:Polska
C:Jonas Olsson
D:[[http://www.holmenmusic.com/artister/huggevill/vargskinnet.shtml|Huggevill - Sånger till vargskinnet]]
Z:Anton Teljebäck 2009-09-15 
M:3/4 
L:1/16 
K:Ador
e2fe d2ed c2A2 | z2(f2 f2)gf e2d2 | c2Bc d2cd e2de | f2d2 e4 B4 |
e2fe d2ed c2A2 | z2(f2 f2)gf e2d2 | c2Bc d2cd e2c2 | B2c2 A8 :| 
|:f2d2 d2f2 a2^gf| ^g2fg e4 B4 | f2d2 d2f2 a2^gf | ^gfga b2g2 e2fg |
a4 =g4 e4 |1 d2f2 e8 :|2 d2f2 e6 B2 | c2Bc d2cd e2c2 | B2c2 A8 |]
(:musicend:)

En snarlik men inte helt identisk version följer nedan. Vore intressant att höra kompositörens åsikt i frågan! Finns låten på någon skiva?

(:music:)
